src/assets/vedlegg.svg

<?xml version="1.0" encoding="UTF-8"?>
<svg width="24px" height="22px" viewBox="0 0 24 22" version="1.1" xmlns="http://www.w3.org/2000/svg" xmlns:xlink="http://www.w3.org/1999/xlink">
    <!-- Generator: Sketch 54.1 (76490) - https://sketchapp.com -->
    <title>Outline/01-Edition/paperclip-1 Copy</title>
    <desc>Created with Sketch.</desc>
    <defs>
        <path d="M22.038,3.03899996 C20.905,1.90499996 19.398,1.28099996 17.796,1.28099996 C16.193,1.28099996 14.686,1.90599996 13.553,3.03899996 L1.55299996,15.039 C-0.200000052,16.793 -0.200000052,19.648 1.55299996,21.403 C2.42999996,22.28 3.58299996,22.718 4.73499997,22.718 C5.88699997,22.718 7.03999998,22.279 7.91799998,21.402 L19.4,9.88299999 C20.374,8.90699999 20.374,7.32199998 19.4,6.34799998 C18.456,5.40399997 16.808,5.40399997 15.865,6.34799998 L7.36399998,14.848 C7.16899998,15.043 7.16899998,15.36 7.36399998,15.555 C7.55899998,15.75 7.87599998,15.75 8.07099998,15.555 L16.572,7.05499998 C17.137,6.48799998 18.126,6.48899998 18.693,7.05499998 C19.277,7.63899998 19.277,8.59099999 18.693,9.17599999 L7.20999998,20.695 C5.84599997,22.06 3.62599996,22.06 2.25999996,20.695 C0.895999953,19.33 0.895999953,17.11 2.25999996,15.745 L14.26,3.74499997 C15.205,2.79999996 16.461,2.27999996 17.796,2.27999996 C19.131,2.27999996 20.387,2.80099996 21.331,3.74499997 C22.276,4.68899997 22.796,5.94499997 22.796,7.27999998 C22.796,8.61499999 22.276,9.87099999 21.331,10.815 L12.831,19.315 C12.636,19.51 12.636,19.827 12.831,20.022 C13.026,20.217 13.343,20.217 13.538,20.022 L22.038,11.522 C23.171,10.389 23.796,8.88299999 23.796,7.27999998 C23.796,5.67799997 23.171,4.17099997 22.038,3.03899996 Z" id="path-1"></path>
    </defs>
    <g id="Page-1-(med-SP-og-BT)" stroke="none" stroke-width="1" fill="none" fill-rule="evenodd">
        <g id="steg-(7)-oppsummering-copy" transform="translate(-353.000000, -2160.000000)">
            <g id="Outline/01-Edition/paperclip-1" transform="translate(353.000000, 2159.000000)">
                <mask id="mask-2" fill="white">
                    <use xlink:href="#path-1"></use>
                </mask>
                <use id="paperclip-1" fill="#3E3832" fill-rule="nonzero" xlink:href="#path-1"></use>
                <rect id="🎨-color" fill="#3E3832" fill-rule="evenodd" mask="url(#mask-2)" x="0" y="0" width="24" height="24"></rect>
            </g>
        </g>
    </g>
</svg>

<?xml version="1.0" encoding="UTF-8"?>
<svg version="1.1" width="24px" height="22px" viewBox="0 0 24 22" xmlns="http://www.w3.org/2000/svg" xmlns:xlink="http://www.w3.org/1999/xlink">
<title>Outline/01-Edition/paperclip-1 Copy</title>
<desc>Created with Sketch.</desc>
<defs>
<path id="a" d="m22.038 3.039c-1.133-1.134-2.64-1.758-4.242-1.758-1.603 0-3.11 0.625-4.243 1.758l-12 12c-1.753 1.754-1.753 4.609 0 6.364 0.877 0.877 2.03 1.315 3.182 1.315 1.152 0 2.305-0.439 3.183-1.316l11.482-11.519c0.974-0.976 0.974-2.561 0-3.535-0.944-0.944-2.592-0.944-3.535 0l-8.501 8.5c-0.195 0.195-0.195 0.512 0 0.707s0.512 0.195 0.707 0l8.501-8.5c0.565-0.567 1.554-0.566 2.121 0 0.584 0.584 0.584 1.536 0 2.121l-11.483 11.519c-1.364 1.365-3.584 1.365-4.95 0-1.364-1.365-1.364-3.585 0-4.95l12-12c0.945-0.945 2.201-1.465 3.536-1.465s2.591 0.521 3.535 1.465c0.945 0.944 1.465 2.2 1.465 3.535s-0.52 2.591-1.465 3.535l-8.5 8.5c-0.195 0.195-0.195 0.512 0 0.707s0.512 0.195 0.707 0l8.5-8.5c1.133-1.133 1.758-2.639 1.758-4.242 0-1.602-0.625-3.109-1.758-4.241z"/>
</defs>
<g fill="none" fill-rule="evenodd">
<g transform="translate(-353 -2160)">
<g transform="translate(353 2159)" fill="#3E3832">
<mask id="b" fill="white">
<use xlink:href="#a"/>
</mask>
<use fill-rule="nonzero" xlink:href="#a"/>
<rect width="24" height="24" fill-rule="evenodd" mask="url(#b)"/>
</g>
</g>
</g>
</svg>
